source/themes/custom/ecom/images/required.svg

<svg width="16" height="16" viewBox="0 0 16 16" fill="none" xmlns="http://www.w3.org/2000/svg">
<g clip-path="url(#clip0_101_4)">
<path d="M0 7.56199L1.114 4.12399C3.679 5.02999 5.544 5.81199 6.704 6.47399C6.398 3.55299 6.237 1.54399 6.22 0.446991H9.731C9.681 2.04399 9.497 4.04699 9.173 6.44999C10.837 5.61199 12.739 4.83699 14.887 4.12499L16 7.56199C13.95 8.23999 11.94 8.69299 9.972 8.91799C10.956 9.77399 12.344 11.299 14.138 13.493L11.232 15.552C10.297 14.278 9.191 12.543 7.916 10.346C6.722 12.621 5.672 14.359 4.769 15.552L1.913 13.493C3.785 11.186 5.124 9.66099 5.93 8.91799C3.849 8.51599 1.872 8.06199 0 7.56199Z" fill="#F90202"/>
</g>
<defs>
<clipPath id="clip0_101_4">
<rect width="16" height="16" fill="white"/>
</clipPath>
</defs>
</svg>

<svg xmlns="http://www.w3.org/2000/svg" width="16" height="16"><path fill="#161616"  d="M0,7.562l1.114-3.438c2.565,0.906,4.43,1.688,5.59,2.35C6.398,3.553,6.237,1.544,6.22,0.447h3.511 c-0.05,1.597-0.234,3.6-0.558,6.003c1.664-0.838,3.566-1.613,5.714-2.325L16,7.562c-2.05,0.678-4.06,1.131-6.028,1.356 c0.984,0.856,2.372,2.381,4.166,4.575l-2.906,2.059c-0.935-1.274-2.041-3.009-3.316-5.206c-1.194,2.275-2.244,4.013-3.147,5.206 l-2.856-2.059c1.872-2.307,3.211-3.832,4.017-4.575C3.849,8.516,1.872,8.062,0,7.562"/></svg>
